X: 36686
T: She Hasn't The Thing She Thought She Had
R: slide
M: 12/8
K: Dmajor
|:A2 G|FGA D2 d c2 B A2 G|FGA DEF G3 A2 G|
FGA D2 d c2 B A2 G|FGA B2 c d3:|
d2 e|f2 d e2 c dcB A3|f2 d c2 d e4ed/e/|
f2 d e2 c dcB A2 G|FGA B2 c d3:|

